src/_assets/sidebar/discussion-icon.svg

<svg width="24" height="24" viewBox="0 0 24 24" fill="none" xmlns="http://www.w3.org/2000/svg">
<path fill-rule="evenodd" clip-rule="evenodd" d="M6.97991 3.56042C6.58912 3.76361 6.56727 4.4522 6.94349 4.70957C6.99882 4.74743 8.2731 4.76291 12.6005 4.77832L18.1861 4.79822L18.3756 4.90929C18.5902 5.03513 18.7469 5.22801 18.8495 5.49286C18.9188 5.67161 18.92 5.72078 18.9364 9.16444C18.9529 12.612 18.9539 12.6562 19.0218 12.7648C19.1525 12.9737 19.2591 13.0388 19.47 13.0388C19.6808 13.0388 19.7874 12.9737 19.9181 12.7647C19.9861 12.656 19.9869 12.6185 19.9962 9.20425C20.0067 5.32495 20.0132 5.44752 19.7626 4.84974C19.4935 4.20785 18.9516 3.71365 18.3528 3.56408C18.0204 3.48104 7.13931 3.47754 6.97991 3.56042ZM5.63103 6.11414C5.04973 6.26318 4.50224 6.76705 4.23877 7.39549C3.98093 8.01047 3.99393 7.67416 4.0044 13.4568L4.01371 18.6122L4.10675 18.8384C4.32097 19.3592 4.8079 19.6141 5.27732 19.4512C5.43662 19.3959 5.63977 19.2311 6.48537 18.4712C7.0445 17.9688 7.53493 17.5484 7.57522 17.5371C7.61553 17.5258 9.57679 17.5123 11.9336 17.507L16.2186 17.4975L16.4609 17.3918C17.1645 17.0848 17.6457 16.4355 17.8186 15.5601C17.8607 15.3466 17.8684 14.768 17.8688 11.7813C17.8693 8.40045 17.8666 8.24181 17.8036 7.94753C17.651 7.23542 17.2574 6.64157 16.7355 6.33611C16.2236 6.03655 16.5726 6.05335 10.9165 6.05609C6.71033 6.05812 5.8109 6.06804 5.63103 6.11414ZM16.2414 7.45712C16.456 7.58295 16.6127 7.77583 16.7153 8.04069C16.7851 8.22063 16.7855 8.24619 16.7855 11.7848C16.7855 15.3235 16.7851 15.349 16.7153 15.529C16.6127 15.7938 16.456 15.9867 16.2414 16.1125L16.0519 16.2236L11.7002 16.2435L7.34839 16.2634L7.14988 16.3589C7.01442 16.424 6.65178 16.7246 6.00775 17.3056L5.06413 18.1569V13.2663C5.06413 7.90824 5.05523 8.15458 5.26091 7.8156C5.3827 7.61492 5.53162 7.48685 5.74704 7.3976C5.90377 7.33267 6.23878 7.32877 10.9832 7.33713L16.0519 7.34605L16.2414 7.45712ZM8.53907 11.3128C8.31568 11.4836 8.23688 11.863 8.36774 12.1377C8.48035 12.3741 8.58362 12.4417 8.83232 12.4417C8.99646 12.4417 9.07122 12.4223 9.14028 12.3621C9.25053 12.2659 9.36587 12.0012 9.36587 11.8445C9.36587 11.6739 9.24799 11.4183 9.12254 11.3171C8.97288 11.1962 8.69423 11.1942 8.53907 11.3128ZM10.6733 11.3128C10.4499 11.4836 10.3711 11.863 10.5019 12.1377C10.6145 12.3741 10.7178 12.4417 10.9665 12.4417C11.1307 12.4417 11.2054 12.4223 11.2745 12.3621C11.3847 12.2659 11.5001 12.0012 11.5001 11.8445C11.5001 11.6739 11.3822 11.4183 11.2567 11.3171C11.1071 11.1962 10.8284 11.1942 10.6733 11.3128ZM12.7442 11.3102C12.6242 11.402 12.5005 11.6731 12.5005 11.8445C12.5005 12.0002 12.6157 12.2659 12.7237 12.3594C12.8493 12.4681 13.1259 12.4889 13.2807 12.4012C13.4352 12.3137 13.5676 12.0549 13.5674 11.841C13.5672 11.6549 13.4541 11.4143 13.3155 11.3052C13.1793 11.198 12.8876 11.2006 12.7442 11.3102Z" fill="#485F7D"/>
</svg>

<svg xmlns="http://www.w3.org/2000/svg" width="24" height="24" fill="none"><path fill="#485F7D" fill-rule="evenodd" d="M6.98 3.56c-.39.204-.413.892-.037 1.15.056.037 1.33.053 5.658.068l5.585.02.19.111q.32.188.473.584c.07.179.071.228.087 3.671.017 3.448.018 3.492.086 3.6.13.21.237.275.448.275.21 0 .317-.065.448-.274.068-.109.069-.147.078-3.56.01-3.88.017-3.757-.233-4.355-.27-.642-.811-1.136-1.41-1.286-.333-.083-11.214-.086-11.373-.004M5.63 6.114c-.581.15-1.129.653-1.392 1.281-.258.615-.245.28-.235 6.062l.01 5.155.093.226c.214.521.7.776 1.17.613.16-.055.363-.22 1.208-.98.56-.502 1.05-.923 1.09-.934s2.002-.025 4.359-.03l4.285-.01.242-.105c.704-.307 1.185-.956 1.358-1.832.042-.213.05-.792.05-3.779 0-3.38-.002-3.54-.065-3.833-.153-.713-.547-1.306-1.069-1.612-.511-.3-.162-.283-5.818-.28-4.207.002-5.106.012-5.286.058m10.61 1.343q.322.188.474.584c.07.18.07.205.07 3.744 0 3.538 0 3.564-.07 3.744a1.1 1.1 0 0 1-.474.584l-.19.11-4.35.02-4.353.02-.198.096c-.136.065-.498.366-1.142.947l-.944.85v-4.89c0-5.358-.009-5.111.197-5.45.122-.201.27-.33.486-.418.157-.065.492-.07 5.236-.06l5.069.008zM8.54 11.313c-.223.17-.302.55-.171.825.112.236.216.304.464.304.164 0 .24-.02.308-.08.11-.096.226-.36.226-.518 0-.17-.118-.426-.243-.527a.52.52 0 0 0-.584-.004m2.134 0c-.223.17-.302.55-.171.825.112.236.216.304.464.304.165 0 .24-.02.309-.08.11-.096.225-.36.225-.518 0-.17-.118-.426-.243-.527a.52.52 0 0 0-.584-.004m2.071-.003c-.12.092-.243.363-.243.534 0 .156.115.422.223.515.125.11.402.13.557.042.154-.087.287-.346.286-.56a.77.77 0 0 0-.252-.536c-.136-.107-.427-.104-.57.005" clip-rule="evenodd"/></svg>
